dist/img/icon/profile-backdrop.svg

<svg width="452" height="418" viewBox="0 0 452 418" fill="none" xmlns="http://www.w3.org/2000/svg">
<g clip-path="url(#clip0_9_641)">
<g opacity="0.56">
<path d="M253.208 417.684C132.267 417.684 33.876 319.175 33.876 198.087C33.8983 157.064 45.3962 116.865 67.0701 82.0348C88.7439 47.2045 119.729 19.1321 156.523 0.990993C157.271 0.612889 158.086 0.386712 158.922 0.325526C159.758 0.264339 160.598 0.369358 161.393 0.634513C162.187 0.899669 162.922 1.31971 163.554 1.87036C164.185 2.42102 164.702 3.09137 165.073 3.84271C165.444 4.59404 165.662 5.41146 165.716 6.24775C165.769 7.08403 165.656 7.9226 165.384 8.71502C165.111 9.50744 164.684 10.238 164.128 10.8645C163.571 11.491 162.896 12.001 162.141 12.3651C127.471 29.4597 98.2732 55.9121 77.8496 88.7321C57.4259 121.552 46.5905 159.431 46.5681 198.087C46.5681 312.181 139.266 405.003 253.208 405.003C283.169 405.069 312.78 398.567 339.957 385.955C340.713 385.6 341.532 385.399 342.367 385.361C343.202 385.324 344.035 385.452 344.82 385.737C345.605 386.023 346.326 386.461 346.942 387.026C347.557 387.591 348.055 388.272 348.406 389.03C348.757 389.788 348.956 390.608 348.989 391.443C349.023 392.277 348.892 393.111 348.602 393.894C348.313 394.678 347.872 395.397 347.304 396.01C346.737 396.623 346.054 397.117 345.294 397.466C316.445 410.854 285.012 417.755 253.208 417.684Z" stroke="#F7F9FC"/>
<path d="M258.997 388.52C153.511 388.52 67.6889 302.576 67.6889 196.931C67.6889 91.2867 153.511 5.33254 258.997 5.33254L310.309 5.32812C311.991 5.32813 313.604 5.99626 314.793 7.18554C315.982 8.37482 316.651 9.98784 316.651 11.6697C316.651 13.3516 315.982 14.9647 314.793 16.1539C313.604 17.3432 311.991 18.0114 310.309 18.0114L258.997 18.0158C160.51 18.0158 80.3854 98.2756 80.3854 196.931C80.3854 295.586 160.51 375.837 258.997 375.837C357.721 375.837 438.034 295.581 438.034 196.931V185.758C438.05 184.086 438.726 182.488 439.915 181.311C441.103 180.135 442.708 179.475 444.38 179.475C446.052 179.475 447.657 180.135 448.845 181.311C450.033 182.488 450.709 184.086 450.726 185.758V196.931C450.726 302.575 364.721 388.52 258.997 388.52Z" stroke="#F7F9FC"/>
<path d="M109.947 403.081C108.613 403.083 107.314 402.662 106.235 401.877C74.0622 378.596 47.7098 348.189 29.2384 313.033C10.2536 276.63 0.331929 236.183 0.3156 195.127C0.150951 138.973 18.7183 84.3681 53.0792 39.9541C54.1047 38.6198 55.6182 37.7474 57.2869 37.529C58.9555 37.3106 60.6426 37.764 61.9769 38.7895C63.3113 39.815 64.1836 41.3285 64.402 42.9972C64.6204 44.6659 64.167 46.3529 63.1416 47.6873C30.4926 89.8875 12.8505 141.771 13.0077 195.127C13.0202 234.135 22.447 272.564 40.4875 307.15C58.0426 340.567 83.0906 369.47 113.672 391.598C114.759 392.384 115.569 393.494 115.986 394.769C116.402 396.044 116.403 397.419 115.989 398.695C115.576 399.971 114.768 401.083 113.682 401.871C112.597 402.659 111.29 403.083 109.948 403.081" stroke="#F7F9FC"/>
</g>
</g>
<defs>
<clipPath id="clip0_9_641">
<rect width="451.042" height="418" fill="white"/>
</clipPath>
</defs>
</svg>

<svg width="452" height="418" viewBox="0 0 452 418" fill="none" xmlns="http://www.w3.org/2000/svg"><g opacity=".56" stroke="#F7F9FC" clip-path="url(#clip0_9_641)"><path d="M253.208 417.684c-120.941 0-219.332-98.509-219.332-219.597A219.884 219.884 0 01156.523.991a6.343 6.343 0 115.618 11.374A207.207 207.207 0 0046.568 198.087c0 114.094 92.698 206.916 206.64 206.916a205.006 205.006 0 0086.749-19.048 6.347 6.347 0 016.985 1.071 6.34 6.34 0 011.66 6.868 6.338 6.338 0 01-3.308 3.572 217.602 217.602 0 01-92.086 20.218z"/><path d="M258.997 388.52c-105.486 0-191.308-85.944-191.308-191.589 0-105.644 85.822-191.598 191.308-191.598l51.312-.005a6.34 6.34 0 110 12.683l-51.312.005c-98.487 0-178.612 80.26-178.612 178.915 0 98.655 80.125 178.906 178.612 178.906 98.724 0 179.037-80.256 179.037-178.906v-11.173a6.343 6.343 0 016.346-6.283 6.348 6.348 0 016.346 6.283v11.173c0 105.644-86.005 191.589-191.729 191.589z"/><path d="M109.947 403.081a6.291 6.291 0 01-3.712-1.204 257.504 257.504 0 01-76.997-88.844A255.202 255.202 0 01.316 195.127 252.38 252.38 0 0153.079 39.954a6.346 6.346 0 0110.063 7.733 239.793 239.793 0 00-50.134 147.44 242.392 242.392 0 0027.48 112.023 244.712 244.712 0 0073.184 84.448 6.348 6.348 0 012.314 3.171 6.346 6.346 0 01-6.038 8.312"/></g><defs><clipPath id="clip0_9_641"><rect width="451.042" height="418" fill="#fff"/></clipPath></defs></svg>
